!!!COM: Bach, Johann Sebastian
!!!OPR: Joh. Seb. Bachs vierstimmige Choralgesänge
!!!XEN: Four-part Chorales
!!!OTL: 137. Nun lob', mein' Seel', den Herren
!!!SCT: BWV 390
!!!SCA: Thematisch-systematisches Verzeichnis der musikalischen Werke Johann Sebastian Bach: Bach-Werke-Verzeichnis (Schmieder)
!!!YOR: Bach Gesellschaft Edition xxxix
!!!ENC: Steven Rasmussen
!!!CDT: 1685/3//-1750/7/28/
!!!OCY: Deutschland
!!!YEC: Copyright (c) 1994, 2000 Center for Computer Assisted Research in the Humanities
!!!YEM: Rights to all derivative editions reserved
!!!YEN: United States of America
**kern	**silbe	**kern	**silbe	**kern	**silbe	**kern
*I:[SOPRANO]	*I:[SOPRANO]	*I:[ALTO]	*I:[ALTO]	*I:[TENORE]	*I:[TENORE]	*I:[BASSO]
*>[A,A,B]	*	*>[A,A,B]	*	*>[A,A,B]	*	*>[A,A,B]
*>A	*	*>A	*	*>A	*	*>A
*clefG2	*	*clefG2	*	*clefGv2	*	*clefF4
*k[]	*	*k[]	*	*k[]	*	*k[]
*C:	*	*C:	*	*C:	*	*C:
*M3/4	*	*M3/4	*	*M3/4	*	*M3/4
4cc\	Nunsein'	4g/	.	4e\	.	4c\
=1	=1	=1	=1	=1	=1	=1
2cc\	lob',Wohl-	2a/	.	4e\	.	2A\
.	.	.	.	4f\	.	.
4b\	mein'-tat	4g/	.	4g\	.	4E\
=2	=2	=2	=2	=2	=2	=2
2a/	Seel',tut	4c/	.	2f\	.	2F\
.	.	4d/	.	.	.	.
4g/	dender	8e/L	.	4e\	.	4C/
.	.	8f/J	.	.	.	.
=3	=3	=3	=3	=3	=3	=3
4cc\	Her-meh-	4g/	.	2c\	.	4E\
2dd\	.	4a/	.	.	.	4F\
.	.	4g/	.	4B\	.	4G\
=4	=4	=4	=4	=4	=4	=4
2ee;\	-ren,-ren,	2g;/	.	2c;\	.	2C;/
4ee\	wasver-	4g/	.	4c\	.	4c\
=5	=5	=5	=5	=5	=5	=5
2ee\	in-giss	4b\	.	4B\	.	4G#\
.	.	4a/	.	4c\	.	4F#\
4ee\	mires	4g#/	.	4d\	.	4E\
=6	=6	=6	=6	=6	=6	=6
2ee\	istnicht,	4a/	.	2c\	.	4A\
.	.	8e/L	.	.	.	4G\
.	.	8f/J	.	.	.	.
4dd\	deno	4g/	.	4B\	.	4F\
=7	=7	=7	=7	=7	=7	=7
8cc\L	Na-Her-	4g/	.	2c\	.	4E\
8dd\J	.	.	.	.	.	.
(4.ddT\	-men-ze	(4a/	.	.	.	(4F\
.	.	4g/)	.	4B\	.	4G\)
8cc\)	.	.	.	.	.	.
=8	=8	=8	=8	=8	=8	=8
2cc;\	sein,mein,	2e;/	.	2G;/	.	2C;/
=:|!	=:|!	=:|!	=:|!	=:|!	=:|!	=:|!
*>B	*	*>B	*	*>B	*	*>B
4cc\	hat	4e/	.	4G/	.	4C/
=9	=9	=9	=9	=9	=9	=9
4cc\	dir	2f/	.	4A/	.	2F\
4dd\	.	.	.	4B\	.	.
4ee\	dein'	4e/	.	4c\	.	4c\
=10	=10	=10	=10	=10	=10	=10
2dd\	S\u3nd'	4g#/	.	8d\L	.	4B\
.	.	.	.	8e\J	.	.
.	.	4a/	.	4f\	.	4A\
4ee\	ver-	4b\	.	4e\	.	4G#\
=11	=11	=11	=11	=11	=11	=11
4cc\	-ge-	2a/	.	2e\	.	4A\
8b/L	.	.	.	.	.	2E\
8a/J	.	.	.	.	.	.
4b/	.	4g#/	.	4d\	.	.
=12	=12	=12	=12	=12	=12	=12
2a;/	-ben	2a;/	.	2c;\	.	2F;\
4a/	und	8f/L	.	4c\	.	4F\
.	.	8e/J	.	.	.	.
=13	=13	=13	=13	=13	=13	=13
4dd\	heilt	2d/	.	2A/	.	2F#\
4cc\	.	.	.	.	.	.
4b\	dein'	4d/	.	4G/	.	4G\
=14	=14	=14	=14	=14	=14	=14
4cc\	Schwach-	4e/	.	4G/	.	4C/
2a/	-heit	4d/	.	2F#/	.	2D\
.	.	4c/	.	.	.	.
=15	=15	=15	=15	=15	=15	=15
2g;/	gross,	2B;/	.	2G;/	.	2GG;/
4g/	er-	4e/	.	4B\	.	4E\
=16	=16	=16	=16	=16	=16	=16
2cc\	-rett'	2e/	.	4c\	.	4A\
.	.	.	.	4d\	.	4B\
4cc\	dein	4a/	.	4e\	.	4c\
=17	=17	=17	=17	=17	=17	=17
4dd\	ar-	2g/	.	4d\	.	4B\
4ee\	.	.	.	4c\	.	4A\
4ff\	-mes	4g/	.	4B\	.	4G\
=18	=18	=18	=18	=18	=18	=18
4ee\	Le-	4g/	.	2c\	.	2c\
4dd\	.	4f/	.	.	.	.
4ee\	.	4e/	.	4B\	.	4G#\
=19	=19	=19	=19	=19	=19	=19
2cc;\	-ben,	2e;/	.	2c;\	.	2A;\
4cc\	nimmt	4a/	.	4f\	.	4F\
=20	=20	=20	=20	=20	=20	=20
2ff\	dich	2a/	.	2A/	.	(4D\
.	.	.	.	.	.	4E\)
4ff\	in	4a/	.	4d\	.	4F\
=21	=21	=21	=21	=21	=21	=21
4ee\	sei-	4b-\	.	2d\	.	4G\
4dd\	.	4f/	.	.	.	2A\
4ee\	-nen	4g/	.	4c#\	.	.
=22	=22	=22	=22	=22	=22	=22
2dd;\	Schoss,?	2f;/	.	2A;/	.	2D;\
4dd\	mit	4g/	.	4B\	.	4G\
=23	=23	=23	=23	=23	=23	=23
2ee\	rei-	2g/	.	2c\	.	4C/
.	.	.	.	.	.	4BB/
4ee\	-chem	4a/	.	4c\	.	4AA/
=24	=24	=24	=24	=24	=24	=24
2ff\	Trost	4f/	.	2A/	.	4D\
.	.	2a/	.	.	.	4C/
4ff\	be-	.	.	4d\	.	4BB/
=25	=25	=25	=25	=25	=25	=25
4.gg\	-sch\u3t-	2.g/	.	4d\	.	4E\
.	.	.	.	4B\	.	4D\
8ff\L	.	.	.	.	.	.
8ee\	.	.	.	4c\	.	4C/
8dd\J	.	.	.	.	.	.
=26	=26	=26	=26	=26	=26	=26
2cc;\	-tet,	2a;/	.	2c;\	.	2F;\
4ee\	ver-	4g/	.	8c\L	.	4c\
.	.	.	.	8B\J	.	.
=27	=27	=27	=27	=27	=27	=27
4dd\	-j\u3ngt	2a/	.	2A/	.	2F#\
4cc\	.	.	.	.	.	.
4b\	dem	4g/	.	4d\	.	4G\
=28	=28	=28	=28	=28	=28	=28
4cc\	Ad-	2g/	Ad-	(4c\	.	(4E\
2a/	-ler	.	.	4e\)	.	4C/)
.	.	4f#/	-ler	8d\L	.	4D\
.	.	.	.	8c\J	.	.
=29	=29	=29	=29	=29	=29	=29
2g;/	gleich,	2d;/	.	2B;\	.	2GG;/
4g/	der	4d/	.	4B\	.	8G\L
.	.	.	.	.	.	8F\J
=30	=30	=30	=30	=30	=30	=30
2cc\	K\o3n'g	4e/	.	4G/	.	4E\
.	.	4f/	.	4d\	.	4D\
4b\	schafft	4g/	.	4e\	.	4C/
=31	=31	=31	=31	=31	=31	=31
2a/	recht,	4c/	.	4A/	.	2F\
.	.	4d/	.	4B\	.	.
4g/	be-	4e/	.	4c\	.	4E\
=32	=32	=32	=32	=32	=32	=32
4dd\	-h\u3-	4f/	.	4B\	.	4D\
4.ee\	.	8e/L	.	4c\	.	2C/
.	.	8d/	.	.	.	.
.	.	8e/	.	4A/	.	.
8dd\	.	8f#/J	.	.	.	.
=33	=33	=33	=33	=33	=33	=33
2dd;\	-tet,	2g;/	.	2B;\	.	2G;\
4ee\	die	4g/	.	4c\	.	4c\
=34	=34	=34	=34	=34	=34	=34
(4ff\	leid'n	4f/	leid'n	2c\	leid'n	(4A\
4ee\)	.	2g/	in	.	.	4G\)
4dd\	in	.	.	4B\	in	4F\
=35	=35	=35	=35	=35	=35	=35
8cc\L	sei-	(4g/	sei-	2c\	.	(4E\
8dd\J	.	.	.	.	.	.
(4.ddT\	-nem	4a/)	.	.	.	4F\)
.	.	4g/	-nem	4B\	.	4G\
8cc\)	.	.	.	.	.	.
=36	=36	=36	=36	=36	=36	=36
2cc;\	Reich.	2e;/	.	2G;/	.	2C;/
==|!	==|!	==|!	==|!	==|!	==|!	==|!
!!!RNB1: *) "Schoss" spelled "Schooss" in BG.
*-	*-	*-	*-	*-	*-	*-
!!!RWG: Key is interpreted using the Humdrum key tool.
!!!END: 1994/07/19/
!!!KEY: 2712164961
!!!EMD: Converted from MuseData to Humdrum Dec 19, 2000, by Andreas Kornstaedt using muse2kern.
